icons/media/disc-edit-24.svg

<svg width="24" height="24" viewBox="0 0 24 24" fill="none" xmlns="http://www.w3.org/2000/svg">
<path fill-rule="evenodd" clip-rule="evenodd" d="M20.1833 15.417C20.4762 15.1241 20.9511 15.1241 21.244 15.417L23.7189 17.8918C24.0117 18.1847 24.0117 18.6596 23.7189 18.9525L19.2994 23.3719C19.1815 23.4898 19.0276 23.5651 18.8621 23.5858L16.0337 23.9393C15.8041 23.9681 15.574 23.8891 15.4103 23.7255C15.2467 23.5618 15.1678 23.3318 15.1965 23.1021L15.55 20.2737C15.5707 20.1082 15.646 19.9543 15.7639 19.8364L20.1833 15.417ZM20.7136 17.008L17.0065 20.7151L16.8045 22.3313L18.4207 22.1293L22.1279 18.4222L20.7136 17.008Z" fill="black"/>
<path fill-rule="evenodd" clip-rule="evenodd" d="M12 2.5C6.75329 2.5 2.5 6.75329 2.5 12C2.5 17.2467 6.75329 21.5 12 21.5C12.4142 21.5 12.75 21.8358 12.75 22.25C12.75 22.6642 12.4142 23 12 23C5.92487 23 1 18.0751 1 12C1 5.92487 5.92487 1 12 1C18.0751 1 23 5.92487 23 12C23 12.4142 22.6642 12.75 22.25 12.75C21.8358 12.75 21.5 12.4142 21.5 12C21.5 6.75329 17.2467 2.5 12 2.5Z" fill="black"/>
<path fill-rule="evenodd" clip-rule="evenodd" d="M12 13.5C12.8284 13.5 13.5 12.8284 13.5 12C13.5 11.1716 12.8284 10.5 12 10.5C11.1716 10.5 10.5 11.1716 10.5 12C10.5 12.8284 11.1716 13.5 12 13.5ZM12 15C13.6569 15 15 13.6569 15 12C15 10.3431 13.6569 9 12 9C10.3431 9 9 10.3431 9 12C9 13.6569 10.3431 15 12 15Z" fill="black"/>
</svg>

<svg xmlns="http://www.w3.org/2000/svg" width="24" height="24"><path fill-rule="evenodd" d="M20.183 15.417a.75.75 0 011.061 0l2.475 2.475a.75.75 0 010 1.06l-4.42 4.42a.75.75 0 01-.437.214l-2.828.353a.75.75 0 01-.837-.837l.353-2.828a.75.75 0 01.214-.438l4.42-4.419zm.53 1.591l-3.707 3.707-.201 1.616 1.616-.202 3.707-3.707-1.414-1.414zM12 2.5a9.5 9.5 0 100 19 .75.75 0 010 1.5C5.925 23 1 18.075 1 12S5.925 1 12 1s11 4.925 11 11a.75.75 0 01-1.5 0A9.5 9.5 0 0012 2.5z"/><path fill-rule="evenodd" d="M12 13.5a1.5 1.5 0 100-3 1.5 1.5 0 000 3zm0 1.5a3 3 0 100-6 3 3 0 000 6z"/></svg>
